resources/icons/20px/trophy.svg

<svg width="20" height="20" viewBox="0 0 20 20" fill="none" xmlns="http://www.w3.org/2000/svg">
<path fill-rule="evenodd" clip-rule="evenodd" d="M5 1C5 0.447716 5.44772 0 6 0H14C14.5523 0 15 0.447715 15 1V3H19C19.5523 3 20 3.44772 20 4V6C20 8.76142 17.7614 11 15 11H14.584C13.9413 12.4709 12.6113 13.5729 11 13.9V18H14C14.5523 18 15 18.4477 15 19C15 19.5523 14.5523 20 14 20H6C5.44772 20 5 19.5523 5 19C5 18.4477 5.44772 18 6 18H9V13.9C7.38867 13.5729 6.05873 12.4709 5.41604 11H5C2.23858 11 0 8.76142 0 6V4C0 3.44772 0.447715 3 1 3H5V1ZM5 5H2V6C2 7.65685 3.34315 9 5 9V5ZM15 9V5H18V6C18 7.65685 16.6569 9 15 9Z" fill="black"/>
</svg>

<svg xmlns="http://www.w3.org/2000/svg" viewBox="0 0 20 20">
  <path d="M5 1a1 1 0 0 1 1-1h8a1 1 0 0 1 1 1v2h4a1 1 0 0 1 1 1v2a5 5 0 0 1-5 5h-.416A5.01 5.01 0 0 1 11 13.9V18h3a1 1 0 1 1 0 2H6a1 1 0 1 1 0-2h3v-4.1A5.01 5.01 0 0 1 5.416 11H5a5 5 0 0 1-5-5V4a1 1 0 0 1 1-1h4zm0 4H2v1a3 3 0 0 0 3 3zm10 4V5h3v1a3 3 0 0 1-3 3"/>
</svg>
